fs/hand_wave_16_filled.svg

<svg viewBox="0 0 16 16" fill="none" xmlns="http://www.w3.org/2000/svg" height="1em" width="1em">
  <path d="M2.06828 2.02257C2.47012 1.92211 2.87732 2.16643 2.97778 2.56828L3.94247 6.427C4.01391 6.7128 4.28705 6.90062 4.57949 6.86505C4.92806 6.82264 5.16065 6.4844 5.07549 6.14374L4.02257 1.93208C3.92211 1.53023 4.16643 1.12303 4.56828 1.02257C4.97012 0.922109 5.37732 1.16643 5.47778 1.56828L6.61107 6.10143C6.68265 6.38776 6.9563 6.57593 7.24928 6.54029C7.59773 6.4979 7.83068 6.16033 7.74666 5.81951L7.02928 2.90951C6.92882 2.50766 7.17314 2.10046 7.57499 2C7.97683 1.89954 8.38403 2.14386 8.4845 2.54571L9.27973 5.76934C9.35136 6.05969 9.62847 6.25088 9.92533 6.21477C10.2837 6.17117 10.5198 5.8194 10.4242 5.47122L10 3.92488C9.89657 3.52379 10.1379 3.11479 10.539 3.01137C10.9401 2.90794 11.3491 3.14925 11.4525 3.55034L12.199 6.30419L12.2008 6.31125C12.2118 6.33863 12.2205 6.36734 12.2266 6.39719C12.3716 7.10071 12.4821 7.83218 12.4998 8.48763C12.5328 9.70966 12.344 11.2957 12.1905 12.3584C12.0536 13.3068 11.3663 14.0626 10.4642 14.3296L8.68005 14.8578C7.2504 15.2809 5.74877 14.7422 4.778 13.6865C3.93706 12.7719 2.84306 11.7566 1.78702 11.2557C1.46607 11.1034 1.19577 10.8297 1.07284 10.4976C0.941677 10.1432 0.983128 9.71107 1.32424 9.38798C1.60297 9.12397 1.99109 8.86437 2.49509 8.76428C2.64728 8.73406 2.80568 8.71926 2.97001 8.72184L1.52257 2.93208C1.42211 2.53023 1.66643 2.12303 2.06828 2.02257ZM13.4293 1.00503C13.5606 0.986274 13.6939 1.02044 13.8 1.1C14.5987 1.75211 15.185 2.62731 15.4842 3.614C15.7834 4.60069 15.7819 5.65414 15.48 6.64C15.4512 6.74472 15.3884 6.8369 15.3015 6.90206C15.2147 6.96722 15.1086 7.00167 15 7L14.86 6.98C14.7327 6.94287 14.6254 6.85669 14.5616 6.74042C14.4978 6.62415 14.4829 6.48731 14.52 6.36C14.7652 5.56934 14.7706 4.72378 14.5357 3.93002C14.3008 3.13626 13.836 2.42988 13.2 1.9C13.0939 1.82044 13.0238 1.70199 13.005 1.57071C12.9863 1.43944 13.0204 1.30609 13.1 1.2C13.1796 1.09392 13.298 1.02378 13.4293 1.00503ZM12.7902 2.59C12.7372 2.55189 12.6772 2.52474 12.6137 2.51013C12.5501 2.49552 12.4842 2.49375 12.42 2.50493C12.3557 2.5161 12.2943 2.54 12.2394 2.57522C12.1845 2.61043 12.1372 2.65626 12.1002 2.71C12.0611 2.76173 12.0326 2.8207 12.0164 2.88351C12.0003 2.94632 11.9967 3.01171 12.006 3.07589C12.0153 3.14008 12.0373 3.20178 12.0706 3.25741C12.1039 3.31305 12.148 3.36152 12.2002 3.4C12.4908 3.65255 12.7156 3.97212 12.855 4.33105C12.9944 4.68999 13.0442 5.07748 13.0002 5.46C12.9947 5.52571 13.0023 5.59184 13.0225 5.6546C13.0427 5.71737 13.0751 5.77552 13.1178 5.8257C13.1606 5.87589 13.2129 5.91713 13.2716 5.94704C13.3304 5.97696 13.3945 5.99496 13.4602 6C13.5862 6.00041 13.7076 5.95325 13.8003 5.86797C13.893 5.78269 13.9501 5.66556 13.9602 5.54C14.0224 4.99002 13.9482 4.43317 13.7442 3.91866C13.5401 3.40415 13.2125 2.94783 12.7902 2.59Z" fill="#212121"/>
</svg>

<svg viewBox="0 0 16 16" fill="none" xmlns="http://www.w3.org/2000/svg" height="1em" width="1em">
  <path d="M2.068 2.023a.75.75 0 0 1 .91.545l.964 3.859a.584.584 0 1 0 1.133-.283L4.023 1.932a.75.75 0 1 1 1.455-.364L6.61 6.101a.585.585 0 0 0 1.136-.281l-.718-2.91a.75.75 0 1 1 1.456-.364l.795 3.223a.591.591 0 1 0 1.144-.298L10 3.925a.75.75 0 0 1 1.453-.375l.746 2.754.002.007c.01.028.02.056.026.086.145.704.255 1.435.273 2.09.033 1.223-.156 2.809-.31 3.871a2.426 2.426 0 0 1-1.726 1.972l-1.784.528c-1.43.423-2.931-.116-3.902-1.171-.84-.915-1.935-1.93-2.991-2.431a1.402 1.402 0 0 1-.714-.758 1.009 1.009 0 0 1 .251-1.11 2.377 2.377 0 0 1 1.171-.624c.152-.03.31-.045.475-.042l-1.447-5.79a.75.75 0 0 1 .545-.91ZM13.43 1.005a.5.5 0 0 1 .371.095 5.19 5.19 0 0 1 1.68 5.54A.49.49 0 0 1 15 7l-.14-.02a.5.5 0 0 1-.34-.62A4.19 4.19 0 0 0 13.2 1.9a.5.5 0 0 1 .23-.895Zm-.64 1.585a.49.49 0 0 0-.69.12.491.491 0 0 0 .1.69 2.37 2.37 0 0 1 .8 2.06.5.5 0 0 0 .46.54.5.5 0 0 0 .5-.46 3.371 3.371 0 0 0-1.17-2.95Z" fill="#212121"/>
</svg>
